X:1
T:Were I a king - Mundy
T:Were I a king - Mundy
T:#
T:#
%%score [ 1 2 { 3 | 4 } 5 ]
L:1/8
Q:1/4=120
M:2/2
K:Bb
V:1 treble nm="Soprano" snm="S"
V:2 treble nm="Alto" snm="A"
V:3 treble-8 nm="Tenor I" snm="T"
V:4 treble-8 
V:5 bass nm="Bass" snm="B"
V:1
"^Were I a King" G8 | B6 B2 | A8 | z4 d4 | A4 B4 | A8 | z4 G4 | B8 |"^John Mundy\n(?-1630)" z4 F4 | %9
w: Were|I a|king,|were|I a|king,|I|might,|I|
 B6 B2 |[M:2/2] c4 e4 | d6 z2 | z8 | z4 z2 e2 | d4 c4 | B4 d4- | d4 c4- | c4 B4 | A4 G4 | A8 | z8 | %21
w: might com-|mand con-|tent;||Were|I ob-|scure, un\-|* known|* should|be my|cares,||
 A4 d4- | d2 c2 =B2 A2 | =B4 G4 | _B6 B2 | A8 | z4 d4 | A4 B4 | A8 | z4 G4 | B8 | z4 F4 | B6 B2 | %33
w: un- known|* should be my|cares, And|were I|dead,|and|were I|dead,|no|thoughts,|no|thoughts should|
 c4 e4 | d4 D4 | F8 | z4 D4 | G6 G2 | G8 | z4 =E4 | A6 A2 | A8 | z4 A4 | d6 d2 | c4 B4 | A8 | %46
w: me tor-|ment, Nor|words,|nor|words, nor|wrongs,|nor|wrongs, nor|loves,|nor|loves, nor|hopes, nor|fears.|
 z4 d4 | d4 c4 | d8 | z8 | z8 | z4 A4 | d8 | c4 B4- | B4 A4 | B6 z2 | z8 | z8 | z2 f2 e2 d2 | %59
w: A|doubt- ful|choice,|||of|three|things one|* to|crave,|||A king- dom,|
 c2 B2 A2 G2 | F2 D2 G4- | G2 G2 ^F4 | G4 z4 | z8 | z2 f2 e2 d2 | c2 A2 B2 c2 | d6 c2 | =B8 |] %68
w: or a cot- tage,|or a grave,|* or a|grave,||a king- dom,|or a cot- tage,|or a|grave.|
V:2
 z8 | G8 | ^F6 F2 | ^F8 | ^F4 G4- | G4 ^F4 | G8 | z4 G4 | A6 A2 | G2 A2 B4- |[M:2/2] B2 (AG A4) | %11
w: |Were|I a|king,|were I|* a|king|I|might, I|might com- mand|* con\- * *|
 B6 z2 | z4 B4 | A6 (G2 | F2) B4 A2 | B6 (A2 | G8) | F8 | z8 | F4 c4- | c2 B2 A2 (G2 | ^F4) G4- | %22
w: tent;|Were|I ob\-|* scure, were|I ob\-||scure,||un- known|* should be my|* cares,|
 G4 ^F4 | G8 | z4 G4 | ^F6 F2 | ^F8 | ^F4 G4- | G4 ^F4 | G8 | z4 G4 | A6 A2 | G2 A2 B4- | %33
w: * my|cares.|And|were I|dead,|and were|* I|dead,|no|thoughts, no|thoughts should me|
 B2 (AG A4) | B8 | z4 D4 | D8 | z4 D4 | =E6 E2 | =E8 | z4 =E4 | ^F6 F2 | ^F8 | z4 B4 | A2 G2 G4- | %45
w: * tor\- * *|ment,|Nor|words,|nor|words, nor|wrongs,|nor|wrongs, nor|loves,|nor|loves, nor hopes,|
 G2 (^F=E F4) | G4 B4 | A4 G4 | ^F4 G4 | c6 c2 | B4 A4 | (A8 | B8) | G8 | F6 E2 | D6 z2 | %56
w: * nor * *|fears. A|doubt- ful|choice, a|doubt- ful|choice, of|three||things|one to|crave,|
 z2 B2 A2 G2 | F2 D2 E2 E2 | D4 B4 | G8 | z4 z2 G2 | F2 =E2 D2 C2 | B,4 G2 G2 | =E2 c2 B2 A2 | %64
w: A king- dom,|or a cot- tage,|or a|grave,|a|cot- tage, or a|grave, or a|grave, a king- dom,|
 G2 F2 B4 | A2 A2 (G4- | G4 ^F4) | G8 |] %68
w: or a cot-|tage, or a||grave.|
V:3
 z8 | d8 | d6 d2 | d8 | d8 | e4 d4 | =B8 | z4 d4 | f6 c2 | e4 f4 |[M:2/2][K:treble-8] e4 c4 | %11
w: |Were|I a|king,|were|I a|king|I|might, I|might com-|mand con-|
 f6 f2 | f4 =e4 | f6 B2 | f4 f4 | f4 f4 | B4 c4 | d8 | c8 | c6 d2 | e8 | d8 | e4 d4 | d8 | z4 d4 | %25
w: tent; Were|I ob-|scure, were|I ob-|scure, un-|known should|be|my|cares, un-|known|should|be my|cares.|And|
 d6 d2 | d8 | d8 | e4 d4 | =B8 | z4 d4 | f6 c2 | e4 f4 | e4 c4 | f8 | z4 B4 | B8 | z4 =B4 | c6 c2 | %39
w: were I|dead,|and|were I|dead,|no|thoughts, no|thoughts should|me tor-|ment,|Nor|words,|nor|words, nor|
 c8 | z4 ^c4 | d6 d2 | d8 | z4 f4 | =e4 d4 | c4 A4 | =B4 g4 | f4 (e4 | d8) | f4 g4 | f8- | f8 | %52
w: wrongs,|nor|wrongs, nor|loves,|nor|loves, nor|hopes, nor|fears. A|doubt- ful||choice, of|three||
 f8 | e6 (d2 | c2 B2 c4) | B4 f4 | f2 B2 c2 G2 | A2 B2 B2 A2 | B4 z2 f2 | e2 d2 c2 B2 | %60
w: things|one to||crave, A|king- dom, or a|cot- tage, or a|grave, a|king- dom, or a|
 A2 (F2 B4) | A6 A2 | G4 d4 | c2 e2 d2 c2 | d4 f4- | f4 g4 | (f2 e2 d4) | d8 |] %68
w: cot- tage, *|or a|grave, a|king- dom, or a|cot- tage,|* or|a * *|grave.|
V:4
 z8 | G8 | A6 A2 | A8 | z4 B4 | c4 A4 | G8 | z4 B4 | c6 c2 | G4 F4 |[M:2/2][K:treble-8] c6 c2 | %11
w: |Were|I a|king,|were|I a|king|I|might, I|might com-|mand con-|
 F6 d2 | c4 B4 | c6 G2 | B4 (c4 | d8) | G8 | z8 | z8 | z4 F4 | c6 B2 | A4 (B4 | A8) | G8 | z4 G4 | %25
w: tent; Were|I ob-|scure, were|I ob\-||scure,|||un-|known should|be my||cares.|And|
 A6 A2 | A8 | z4 B4 | c4 A4 | G8 | z4 B4 | c6 c2 | G4 F4 | c6 c2 | F8 | z4 F4 | F8 | z4 G4 | %38
w: were I|dead,|and|were I|dead,|no|thoughts, no|thoughts should|me tor-|ment,|Nor|words,|nor|
 G6 G2 | G8 | z4 A4 | A6 A2 | A8 | z4 D4 | =E2 (F2 G4) | A6 A2 | G4 z4 | z8 | z4 B4 | A4 (G4 | %50
w: words, nor|wrongs,|nor|wrongs, nor|loves,|nor|loves, nor *|hopes, nor|fears.||A|doubt- ful|
 d8) | c8 | B4 B4- | B2 (A2 G4) | A2 (G2 F4) | F6 d2 | c2 d2 A2 B2 | F2 F2 G2 E2 | F8 | z4 e4 | %60
w: |choice,|of three|* things *|one to *|crave, A|king- dom, or a|cot- tage, or a|grave,|a|
 d6 d2 | c2 c2 A4 | z2 d2 c2 B2 | A2 G2 (F2 E2) | D8 | z4 G4 | A8 | G8 |] %68
w: cot- tage,|or a grave,|a king- dom,|or a cot\- *|tage,|or|a|grave.|
V:5
 z8 | G,,8 | D,6 D,2 | D,8 | z4 G,4 | C,4 D,4 | G,,8 | z4 G,4 | F,6 F,2 | E,4 D,4 | %10
w: |Were|I a|king,|were|I a|king|I|might, I|might com-|
[M:2/2] C,6 C,2 | B,,6 B,2 | A,4 G,4 | F,6 E,2 | B,,4 F,4 | B,,8 | E,8 | D,6 E,2 | F,4 (C,4 | %19
w: mand con-|tent; Were|I ob-|scure, were|I ob-|scure,|un-|known should|be my|
 F,8) | E,4 C,4 | D,4 B,,4 | C,4 D,4 | G,,8 | z4 G,,4 | D,6 D,2 | D,8 | z4 G,4 | C,4 D,4 | G,,8 | %30
w: |cares, un-|known should|be my|cares.|And|were I|dead,|and|were I|dead,|
 z4 G,4 | F,6 F,2 | E,4 D,4 | C,6 C,2 | B,,8 | z4 B,,4 | B,,8 | z4 G,,4 | C,6 C,2 | C,8 | z4 A,,4 | %41
w: no|thoughts, no|thoughts should|me tor-|ment,|Nor|words,|nor|words, nor|wrongs,|nor|
 D,6 D,2 | D,8 | z4 B,,4 | C,4 G,,4 | C,4 D,4 | G,,4 z4 | z8 | z4 G,4 | F,4 E,4 | D,6 D,2 | F,8 | %52
w: wrongs, nor|loves,|nor|loves, nor|hopes, nor|fears.||A|doubt- ful|choice, of|three|
 B,,8 | E,8 | F,8 | B,,6 B,2 | A,2 G,2 F,2 E,2 | D,2 B,,2 E,2 C,2 | B,,8 | C,8 | D,4 B,,4 | %61
w: things|one|to|crave, A|king- dom, or a|cot- tage, or a|grave,|a|king- dom,|
 C,4 D,4 | G,,8 | A,,8 | B,,8 | (F,4 E,4 | D,8) | G,,8 |] %68
w: or a|cot-|tage,|or|a *||grave.|

